public/avatar/hat/17.svg

<svg xmlns:xlink="http://www.w3.org/1999/xlink" height="92.9" width="100.7" xmlns="http://www.w3.org/2000/svg"><g transform="translate(38.65 49.75)"><use height="13.2" transform="translate(-16.8 -6.25)" width="13.2" xlink:href="#a"/><use height="13.2" transform="translate(3.95 -6.1)" width="13.2" xlink:href="#a"/><use height="15.1" transform="translate(-15 -.65)" width="29.05" xlink:href="#b"/></g><defs><g id="c"><path d="m5 3.55-.7.75-1.75 1.3-1.8-1.1Q-.8 3.55-2.05.8-3.35-2-3.9-4.75l.25-.2.6-.35Q-1.7-1.85.6.5q.9.9 1.95 1.65L5 3.55" fill="#900" fill-rule="evenodd" transform="translate(6.6 6.6)"/><path d="M-3.05-5.3Q-1.7-6.1 0-6.1l.8.05Q2.5-1.05.6.5q-2.3-2.35-3.65-5.8M4.7-3.9Q6.1-2.25 6.1 0q0 2-1.1 3.55l-2.45-1.4Q4.35.35 4.7-3.9m-8.65 8.6-.4-.4Q-6.1 2.55-6.1 0t1.75-4.35l.15-.15q.45 3.05 1.05 4.95.6 1.9 1.5 2.95-.55 1.05-2.3 1.3" fill="red" fill-rule="evenodd" transform="translate(6.6 6.6)"/><path d="M.8-6.05q2.05.25 3.5 1.7l.4.45Q4.35.35 2.55 2.15 1.5 1.4.6.5q1.9-1.55.2-6.55M1.6 5.9 0 6.1q-2.25 0-3.95-1.4 1.75-.25 2.3-1.3 1 1.3 2.6 2.2l.65.3" fill="#f30" fill-rule="evenodd" transform="translate(6.6 6.6)"/><path d="m2.55 5.6-.95.3-.65-.3q-1.6-.9-2.6-2.2-.9-1.05-1.5-2.95-.6-1.9-1.05-4.95l.3-.25Q-3.35-2-2.05.8-.8 3.55.75 4.5l1.8 1.1" fill-rule="evenodd" transform="translate(6.6 6.6)"/><path d="M-3.05-5.3Q-1.7-6.1 0-6.1l.8.05q2.05.25 3.5 1.7l.4.45Q6.1-2.25 6.1 0q0 2-1.1 3.55l-.7.75-1.75 1.3-.95.3-1.6.2q-2.25 0-3.95-1.4l-.4-.4Q-6.1 2.55-6.1 0t1.75-4.35l.15-.15.3-.25.25-.2.6-.35Z" fill="none" stroke="#600" stroke-linecap="round" stroke-linejoin="round" transform="translate(6.6 6.6)"/></g><g id="b"><path d="m-1.2-.1 1-.05L1.45 0q4.3 9.7 12 12.6l.1 1.35q-4.7-.2-7.75-3.55-3.25-3.5-5-7.95l-1-2.6q-.6 6.5-4.85 9.8-4.05 3.25-9.45 3.25l.3-1.65q9.1-.95 13-11.35" fill-rule="evenodd" transform="translate(15 .65)"/><path d="M4.8 1q2.15.9 4.2 2.5 3 2.4 4.05 6.7Q8.35 7.4 4.8 1m-18.25 7.8q1.1-2.75 3.2-5Q-7.8 1.1-3.95.25-8.3 7-13.45 8.8" fill="#c00" fill-rule="evenodd" transform="translate(15 .65)"/><path d="m3 .35 1.2.4.6.25q3.55 6.4 8.25 9.2l.1.3.25 1.4Q7.05 8.15 3 .35m-16.7 9.2.25-.75Q-8.3 7-3.95.25l1-.15q-4.1 8.35-10.75 9.45" fill="red" fill-rule="evenodd" transform="translate(15 .65)"/><path d="M1.45 0 2.8.3l.2.05q4.05 7.8 10.4 11.55l.05.7Q5.75 9.7 1.45 0M-14.2 11.25l.5-1.7Q-7.05 8.45-2.95.1l.3-.05L-1.2-.1q-3.9 10.4-13 11.35" fill="#900" fill-rule="evenodd" transform="translate(15 .65)"/><path d="m-1.2-.1 1-.05L1.45 0 2.8.3l.2.05 1.2.4.6.25q2.15.9 4.2 2.5 3 2.4 4.05 6.7l.1.3.25 1.4.05.7.1 1.35q-4.7-.2-7.75-3.55-3.25-3.5-5-7.95l-1-2.6q-.6 6.5-4.85 9.8-4.05 3.25-9.45 3.25l.3-1.65.5-1.7.25-.75q1.1-2.75 3.2-5Q-7.8 1.1-3.95.25l1-.15.3-.05L-1.2-.1Z" fill="none" stroke="#600" stroke-linecap="round" stroke-linejoin="round" transform="translate(15 .65)"/></g><use height="13.2" width="13.2" xlink:href="#c" id="a"/></defs></svg>

<?xml version="1.0" encoding="UTF-8" standalone="no"?>
<svg xmlns:xlink="http://www.w3.org/1999/xlink" height="92.9px" width="100.7px" xmlns="http://www.w3.org/2000/svg">
  <g transform="matrix(1.0, 0.0, 0.0, 1.0, 38.65, 49.75)">
    <use height="13.2" transform="matrix(1.0, 0.0, 0.0, 1.0, -16.8, -6.25)" width="13.2" xlink:href="#sprite0"/>
    <use height="13.2" transform="matrix(1.0, 0.0, 0.0, 1.0, 3.95, -6.1)" width="13.2" xlink:href="#sprite0"/>
    <use height="15.1" transform="matrix(1.0, 0.0, 0.0, 1.0, -15.0, -0.65)" width="29.05" xlink:href="#shape1"/>
  </g>
  <defs>
    <g id="sprite0" transform="matrix(1.0, 0.0, 0.0, 1.0, 6.6, 6.6)">
      <use height="13.2" transform="matrix(1.0, 0.0, 0.0, 1.0, -6.6, -6.6)" width="13.2" xlink:href="#shape0"/>
    </g>
    <g id="shape0" transform="matrix(1.0, 0.0, 0.0, 1.0, 6.6, 6.6)">
      <path d="M5.0 3.55 L4.3 4.3 2.55 5.6 0.75 4.5 Q-0.8 3.55 -2.05 0.8 -3.35 -2.0 -3.9 -4.75 L-3.65 -4.95 -3.05 -5.3 Q-1.7 -1.85 0.6 0.5 1.5 1.4 2.55 2.15 L5.0 3.55" fill="#990000" fill-rule="evenodd" stroke="none"/>
      <path d="M-3.05 -5.3 Q-1.7 -6.1 0.0 -6.1 L0.8 -6.05 Q2.5 -1.05 0.6 0.5 -1.7 -1.85 -3.05 -5.3 M4.7 -3.9 Q6.1 -2.25 6.1 0.0 6.1 2.0 5.0 3.55 L2.55 2.15 Q4.35 0.35 4.7 -3.9 M-3.95 4.7 L-4.35 4.3 Q-6.1 2.55 -6.1 0.0 -6.1 -2.55 -4.35 -4.35 L-4.2 -4.5 Q-3.75 -1.45 -3.15 0.45 -2.55 2.35 -1.65 3.4 -2.2 4.45 -3.95 4.7" fill="#ff0000" fill-rule="evenodd" stroke="none"/>
      <path d="M0.8 -6.05 Q2.85 -5.8 4.3 -4.35 L4.7 -3.9 Q4.35 0.35 2.55 2.15 1.5 1.4 0.6 0.5 2.5 -1.05 0.8 -6.05 M1.6 5.9 L0.0 6.1 Q-2.25 6.1 -3.95 4.7 -2.2 4.45 -1.65 3.4 -0.65 4.7 0.95 5.6 L1.6 5.9" fill="#ff3300" fill-rule="evenodd" stroke="none"/>
      <path d="M2.55 5.6 L1.6 5.9 0.95 5.6 Q-0.65 4.7 -1.65 3.4 -2.55 2.35 -3.15 0.45 -3.75 -1.45 -4.2 -4.5 L-3.9 -4.75 Q-3.35 -2.0 -2.05 0.8 -0.8 3.55 0.75 4.5 L2.55 5.6" fill="#000000" fill-rule="evenodd" stroke="none"/>
      <path d="M-3.05 -5.3 Q-1.7 -6.1 0.0 -6.1 L0.8 -6.05 Q2.85 -5.8 4.3 -4.35 L4.7 -3.9 Q6.1 -2.25 6.1 0.0 6.1 2.0 5.0 3.55 L4.3 4.3 2.55 5.6 1.6 5.9 0.0 6.1 Q-2.25 6.1 -3.95 4.7 L-4.35 4.3 Q-6.1 2.55 -6.1 0.0 -6.1 -2.55 -4.35 -4.35 L-4.2 -4.5 -3.9 -4.75 -3.65 -4.95 -3.05 -5.3 Z" fill="none" stroke="#660000" stroke-linecap="round" stroke-linejoin="round" stroke-width="1.0"/>
    </g>
    <g id="shape1" transform="matrix(1.0, 0.0, 0.0, 1.0, 15.0, 0.65)">
      <path d="M-1.2 -0.1 L-0.2 -0.15 1.45 0.0 Q5.75 9.7 13.45 12.6 L13.55 13.95 Q8.85 13.75 5.8 10.4 2.55 6.9 0.8 2.45 L-0.2 -0.15 Q-0.8 6.35 -5.05 9.65 -9.1 12.9 -14.5 12.9 L-14.2 11.25 Q-5.1 10.3 -1.2 -0.1" fill="#000000" fill-rule="evenodd" stroke="none"/>
      <path d="M4.8 1.0 Q6.95 1.9 9.0 3.5 12.0 5.9 13.05 10.2 8.35 7.4 4.8 1.0 M-13.45 8.8 Q-12.35 6.05 -10.25 3.8 -7.8 1.1 -3.95 0.25 -8.3 7.0 -13.45 8.8" fill="#cc0000" fill-rule="evenodd" stroke="none"/>
      <path d="M3.0 0.35 L4.2 0.75 4.8 1.0 Q8.35 7.4 13.05 10.2 L13.15 10.5 13.4 11.9 Q7.05 8.15 3.0 0.35 M-13.7 9.55 L-13.45 8.8 Q-8.3 7.0 -3.95 0.25 L-2.95 0.1 Q-7.05 8.45 -13.7 9.55" fill="#ff0000" fill-rule="evenodd" stroke="none"/>
      <path d="M1.45 0.0 L2.8 0.3 3.0 0.35 Q7.05 8.15 13.4 11.9 L13.45 12.6 Q5.75 9.7 1.45 0.0 M-14.2 11.25 L-13.7 9.55 Q-7.05 8.45 -2.95 0.1 L-2.65 0.05 -1.2 -0.1 Q-5.1 10.3 -14.2 11.25" fill="#990000" fill-rule="evenodd" stroke="none"/>
      <path d="M-1.2 -0.1 L-0.2 -0.15 1.45 0.0 2.8 0.3 3.0 0.35 4.2 0.75 4.8 1.0 Q6.95 1.9 9.0 3.5 12.0 5.9 13.05 10.2 L13.15 10.5 13.4 11.9 13.45 12.6 13.55 13.95 Q8.85 13.75 5.8 10.4 2.55 6.9 0.8 2.45 L-0.2 -0.15 Q-0.8 6.35 -5.05 9.65 -9.1 12.9 -14.5 12.9 L-14.2 11.25 -13.7 9.55 -13.45 8.8 Q-12.35 6.05 -10.25 3.8 -7.8 1.1 -3.95 0.25 L-2.95 0.1 -2.65 0.05 -1.2 -0.1 Z" fill="none" stroke="#660000" stroke-linecap="round" stroke-linejoin="round" stroke-width="1.0"/>
    </g>
  </defs>
</svg>
